X:241
T:The Skootamata Breakdo
R:reel
C:Bruce Osborne - May 2002
Z:abc by bosborne@kos.net
M:2/4
L:1/8
K:Gmaj
D/F/|GG/F/ G/A/B/c/|d/g/f/g/ dd/g/|ff/e/ d/c/A/c/|B/A/B/c/ dD/F/|\
GG/F/ G/A/B/c/|d/g/f/g/ dd/g/|ff/e/ d/c/A/F/|G/B/A/F/ G:|
|:B/d/|g/f/g/a/ g/d/B/d/|g/f/g/a/ gA/B/|c/B/c/d/ c/A/F/A/|G/A/B/c/ dB/d/|\
g/f/g/a/ g/d/B/d/|c/B/c/d/ e/g/f/e/|d/B/G/B/ c/A/F/A/|G/B/A/F/ G:|
